X: 1184
T: Kadehin Dudağımda...
C: Rüştü Eriç
O: Turkey
F: http://compmusic.upf.edu/node/140
N: mahur--sarki--duyek--kadehin_dudagimda--rustu_eric
N: makam= mahur
N: form= sarki
N: usul= duyek = 8/4
M: 8/4
L: 1/16
K: C ^9/8f   
Q: 1/4=144
%%MIDI tuningsystem comma53
zg2g g3/2f/ ga zc' ba gf ge  | zf2f f3/2e/ fg zb ag fe dc  | 
w:   |   | 
ze2e e3/2d/ ef za gf ed cB  | zd2d d3/2c/ de zg fe dc BA  | 
w:   |   | 
GB Ac Bd ce df eg fa g2  | zg2g g3/2f/ ga zc' ba gf ge  | 
w:   |   | 
zf2f f3/2e/ fg zb ag fe dc  | ze2e e3/2d/ ef za gf ed cB  | 
w:   |   | 
zd2d d3/2c/ de zg fe dc BA  | GB dg fd ec dB cA G4  | 
w:   |   | 
z2 dg g4 a2 b2 ag fe  | d4 e2 f2 g2 {b}ag g4  | \
w:  Ka de hin   |  du da ğım *  *  *  *  da   | 
f2 e2 d4 d2 e2 d2 z2  | 
w:  *  *  *  gel sen  de   | 
g3f e2 f2 g8  | zg2a gf ed ze dc BA G2  | \
w:  gel me sen  *  de    |   | 
z2 dg g4 a2 b2 ag fe  | 
w:  Ka de hin   | 
d4 e2 f2 g2 {b}ag g4  | f2 e2 d4 d2 e2 d2 z2  | \
w:  du da ğım *  *  *  *  da   |  *  *  *  gel sen  de   | 
g3f e2 f2 g8  | zg2a gf ed ef ga b3/2a/ g2  | 
w:  gel me sen  *  de    |   | 
d2 g4 z2 .d2 .d2 .g4  | b2 a4 f2 ag fe d4  | \
w:  Göl gen  SAZ  |  ma sam da  sar *  *  *  hoş   | 
z2 e4 cB A2 Bc d4  | 
w:  ha tı *  ran   | 
g2 g4 =fe dc BA G4  | zg2a gf ed ef ga b3/2a/ g2  | 
w:  ba na  *  *  *  *  ye *  ter    |   | 
d2 g4 z2 .d2 .d2 .g4  | b2 a4 f2 ag fe d4  | \
w:  Göl gen  SAZ  |  ma sam da  sar *  *  *  hoş   | 
z2 e4 cB A2 Bc d4  | 
w:  ha tı *  ran   | 
g2 g4 =fe dc BA G4  | g2 _1/4b4 c'2 d'c' b^a b4  | \
w:  ba na  *  *  *  *  ye *  ter    |  SAZ  | 
g2 _1/4b6 .g2 .g2 .b4  | 
w:  Kal bim  SAZ  | 
c'2 d'4 _1/4b2 c'2 b^a b4  | d'8 d'c' _1/4b^a b4  | \
w:  se nin dir_ ar *  *  tık   |  ah   | 
_1/4b2 c'2 d'2 z2 c'3b ^a2 c'b  | 
w:  bil sen  de  bil me sen   | 
_1/4b6 c'2 d'c' b^a b4  | g2 _1/4b6 .g2 .g2 .b4  | \
w:  de   SAZ  |  Kal bim  SAZ  | 
c'2 d'4 _1/4b2 c'2 b^a b4  | d'8 d'c' _1/4b^a b4  | 
w:  se nin dir_ ar *  *  tık   |  ah   | 
c'2 b2 a2 z2 g3f e2 f2  | g6 fe de fg b3/2a/ g2  | \
w:  bil sen  de  bil me sen   |  de   SAZ  | 
d3d g4 .d2 .d2 .g4  | 
w:  Bir  ka deh  SAZ  | 
b2 a4 f2 ag fe d4  | z2 e4 c2 A2 Bc d4  | \
w:  bir  ha tı ra   |  bir_ ö mür   | 
z2 g4 =fe dc BA G4  | 
w:  böy *  *  le  *  bi *  ter    | 
d3d g4 .d2 .d2 .g4  | b2 a4 f2 ag fe d4  | \
w:  Bir  ka deh  SAZ  |  bir  ha tı ra   | 
z2 e4 c2 A2 Bc d4  | 
w:  bir_ ö mür   | 
z2 g4 =fe dc BA G4  | |


